images/zhuyin/12.svg

<svg width="50" height="50" viewBox="0 0 50 50" fill="none" xmlns="http://www.w3.org/2000/svg">
<path d="M19.375 16.8125C19.7969 16.8125 20.4141 17.0234 21.2266 17.4453C21.9297 17.7734 22.2812 18.1016 22.2812 18.4297C22.2812 18.5547 22.2188 18.7422 22.0938 18.9922C22.0312 19.3047 22 19.6719 22 20.0938V26.75C22 27.4375 22.1562 27.7812 22.4688 27.7812C22.6875 27.7812 23.1172 27.6484 23.7578 27.3828C25.6172 26.6172 27.25 25.8438 28.6562 25.0625V23.3047C28.6562 19.1172 28.4844 16.4844 28.1406 15.4062L27.9062 14.6562C27.9062 14.5469 28.0312 14.4922 28.2812 14.4922C28.6719 14.4922 29.1562 14.6719 29.7344 15.0312C30.3281 15.4531 30.625 15.8281 30.625 16.1562C30.625 16.25 30.5391 16.4531 30.3672 16.7656C30.2891 17.0312 30.25 17.4766 30.25 18.1016V24.7812C30.25 30.0312 30.1875 33.0938 30.0625 33.9688C30.0156 34.2344 29.9141 34.4844 29.7578 34.7188C29.6484 34.9062 29.5 35 29.3125 35C29.0469 35 28.7812 34.7891 28.5156 34.3672C28.1719 33.8047 28 33.3906 28 33.125C28 32.9688 28.0703 32.5312 28.2109 31.8125C28.4297 30.5938 28.5703 28.7344 28.6328 26.2344C26.6953 27.4531 25.0781 28.3672 23.7812 28.9766C23.2031 29.2109 22.7812 29.4375 22.5156 29.6562C22.3438 29.7812 22.1719 29.8438 22 29.8438C21.7344 29.8438 21.3203 29.625 20.7578 29.1875C20.2734 28.8125 20.0312 28.4688 20.0312 28.1562C20.0312 28.0312 20.0625 27.8203 20.125 27.5234C20.25 27.0703 20.3125 26.5 20.3125 25.8125C20.3125 23 20.1875 20.9688 19.9375 19.7188C19.8125 18.8594 19.5 18.0156 19 17.1875C19 16.9375 19.125 16.8125 19.375 16.8125Z" fill="#333333"/>
<path d="M21.2266 17.4453L20.9962 17.8891L21.0055 17.8939L21.0151 17.8984L21.2266 17.4453ZM22.0938 18.9922L21.6465 18.7686L21.6166 18.8285L21.6035 18.8941L22.0938 18.9922ZM23.7578 27.3828L23.5674 26.9205L23.5663 26.9209L23.7578 27.3828ZM28.6562 25.0625L28.8991 25.4996L29.1562 25.3567V25.0625H28.6562ZM28.1406 15.4062L27.6634 15.5554L27.6643 15.5581L28.1406 15.4062ZM27.9062 14.6562H27.4062V14.7326L27.429 14.8054L27.9062 14.6562ZM29.7344 15.0312L30.024 14.6237L30.0114 14.6147L29.9983 14.6066L29.7344 15.0312ZM30.3672 16.7656L29.9291 16.5247L29.9029 16.5723L29.8875 16.6245L30.3672 16.7656ZM30.0625 33.9688L30.5549 34.0556L30.5563 34.0476L30.5575 34.0395L30.0625 33.9688ZM29.7578 34.7188L29.3418 34.4414L29.3335 34.4539L29.3259 34.4668L29.7578 34.7188ZM28.5156 34.3672L28.0889 34.6279L28.0925 34.6336L28.5156 34.3672ZM28.2109 31.8125L28.7017 31.9085L28.7031 31.9008L28.2109 31.8125ZM28.6328 26.2344L29.1327 26.2469L29.156 25.3146L28.3666 25.8111L28.6328 26.2344ZM23.7812 28.9766L23.9691 29.4399L23.9816 29.4348L23.9939 29.4291L23.7812 28.9766ZM22.5156 29.6562L22.8097 30.0606L22.8219 30.0518L22.8335 30.0422L22.5156 29.6562ZM20.7578 29.1875L21.0648 28.7928L21.0639 28.7921L20.7578 29.1875ZM20.125 27.5234L19.643 27.3905L19.6389 27.4053L19.6357 27.4204L20.125 27.5234ZM19.9375 19.7188L19.4427 19.7907L19.4446 19.8038L19.4472 19.8168L19.9375 19.7188ZM19 17.1875H18.5V17.3267L18.572 17.4459L19 17.1875ZM19.375 17.3125C19.6664 17.3125 20.1901 17.4705 20.9962 17.8891L21.457 17.0016C20.638 16.5763 19.9273 16.3125 19.375 16.3125V17.3125ZM21.0151 17.8984C21.3445 18.0521 21.5552 18.1899 21.6764 18.303C21.7984 18.4169 21.7812 18.4581 21.7812 18.4297H22.7812C22.7812 18.0732 22.5883 17.7862 22.3587 17.572C22.1284 17.357 21.8117 17.1666 21.438 16.9922L21.0151 17.8984ZM21.7812 18.4297C21.7812 18.4166 21.783 18.4372 21.76 18.5059C21.7386 18.5702 21.7024 18.6568 21.6465 18.7686L22.541 19.2158C22.6679 18.9619 22.7812 18.6821 22.7812 18.4297H21.7812ZM21.6035 18.8941C21.5328 19.2473 21.5 19.6488 21.5 20.0938H22.5C22.5 19.6949 22.5297 19.362 22.584 19.0902L21.6035 18.8941ZM21.5 20.0938V26.75H22.5V20.0938H21.5ZM21.5 26.75C21.5 27.116 21.5392 27.4601 21.662 27.7303C21.7262 27.8716 21.8226 28.0134 21.968 28.12C22.1189 28.2307 22.2928 28.2812 22.4688 28.2812V27.2812C22.4885 27.2812 22.5256 27.2888 22.5594 27.3136C22.5875 27.3343 22.5863 27.3472 22.5724 27.3165C22.539 27.243 22.5 27.0715 22.5 26.75H21.5ZM22.4688 28.2812C22.6573 28.2812 22.8794 28.2284 23.1027 28.1593C23.3381 28.0866 23.6214 27.9806 23.9493 27.8447L23.5663 26.9209C23.2536 27.0506 23.0017 27.1439 22.8074 27.2039C22.601 27.2677 22.499 27.2812 22.4688 27.2812V28.2812ZM23.9482 27.8452C25.8213 27.0739 27.4723 26.2922 28.8991 25.4996L28.4134 24.6254C27.0277 25.3953 25.4131 26.1605 23.5674 26.9205L23.9482 27.8452ZM29.1562 25.0625V23.3047H28.1562V25.0625H29.1562ZM29.1562 23.3047C29.1562 21.2056 29.1132 19.4885 29.0263 18.1569C28.9403 16.8392 28.8092 15.8571 28.617 15.2544L27.6643 15.5581C27.8158 16.0335 27.9426 16.9069 28.0284 18.222C28.1134 19.5232 28.1562 21.2163 28.1562 23.3047H29.1562ZM28.6179 15.2571L28.3835 14.5071L27.429 14.8054L27.6634 15.5554L28.6179 15.2571ZM28.4062 14.6562C28.4062 14.7313 28.3823 14.8154 28.3274 14.8875C28.2775 14.953 28.2227 14.9815 28.2004 14.9913C28.1783 15.0009 28.1709 14.9999 28.1893 14.9972C28.2062 14.9948 28.2358 14.9922 28.2812 14.9922V13.9922C28.1352 13.9922 27.958 14.0058 27.7996 14.0751C27.7148 14.1122 27.6131 14.175 27.532 14.2815C27.4458 14.3945 27.4062 14.5265 27.4062 14.6562H28.4062ZM28.2812 14.9922C28.5324 14.9922 28.92 15.1137 29.4704 15.4559L29.9983 14.6066C29.3925 14.23 28.8114 13.9922 28.2812 13.9922V14.9922ZM29.4448 15.4388C29.721 15.6351 29.9023 15.8028 30.0103 15.9393C30.1198 16.0775 30.125 16.1462 30.125 16.1562H31.125C31.125 15.8381 30.9818 15.5553 30.7944 15.3186C30.6055 15.08 30.3415 14.8493 30.024 14.6237L29.4448 15.4388ZM30.125 16.1562C30.125 16.1121 30.1336 16.0909 30.1286 16.108C30.1251 16.1201 30.1168 16.1445 30.1001 16.1841C30.0665 16.2633 30.0111 16.3755 29.9291 16.5247L30.8053 17.0066C30.8951 16.8433 30.9686 16.6976 31.021 16.5737C31.0641 16.4719 31.125 16.3144 31.125 16.1562H30.125ZM29.8875 16.6245C29.7874 16.9649 29.75 17.4734 29.75 18.1016H30.75C30.75 17.4797 30.7907 17.0976 30.8469 16.9067L29.8875 16.6245ZM29.75 18.1016V24.7812H30.75V18.1016H29.75ZM29.75 24.7812C29.75 27.4049 29.7344 29.4791 29.7032 31.0054C29.6718 32.545 29.6249 33.4967 29.5675 33.898L30.5575 34.0395C30.6251 33.5658 30.6719 32.5487 30.703 31.0258C30.7344 29.4896 30.75 27.4076 30.75 24.7812H29.75ZM29.5701 33.8819C29.5358 34.0764 29.4614 34.2619 29.3418 34.4414L30.1738 34.9961C30.3667 34.7068 30.4955 34.3924 30.5549 34.0556L29.5701 33.8819ZM29.3259 34.4668C29.3023 34.5073 29.2896 34.5119 29.2975 34.5069C29.3012 34.5046 29.3062 34.5023 29.3114 34.5008C29.3163 34.4995 29.3173 34.5 29.3125 34.5V35.5C29.7089 35.5 30.0076 35.2829 30.1897 34.9707L29.3259 34.4668ZM29.3125 34.5C29.3125 34.5 29.3124 34.5 29.3121 34.5C29.3118 34.4999 29.3112 34.4999 29.3103 34.4997C29.3084 34.4993 29.3043 34.4983 29.2978 34.4957C29.2844 34.4904 29.26 34.478 29.225 34.4502C29.1519 34.3922 29.0543 34.2843 28.9387 34.1008L28.0925 34.6336C28.3722 35.0777 28.7678 35.5 29.3125 35.5V34.5ZM28.9423 34.1065C28.7782 33.838 28.6633 33.618 28.5907 33.4431C28.515 33.2607 28.5 33.1618 28.5 33.125H27.5C27.5 33.3538 27.5709 33.5947 27.6671 33.8265C27.7664 34.0656 27.9093 34.3338 28.089 34.6279L28.9423 34.1065ZM28.5 33.125C28.5 33.0929 28.5104 32.9828 28.5464 32.759C28.5803 32.5483 28.6318 32.2654 28.7016 31.9085L27.7202 31.7165C27.6494 32.0783 27.5955 32.3736 27.5591 32.6003C27.5247 32.8141 27.5 33.0009 27.5 33.125H28.5ZM28.7031 31.9008C28.9289 30.6429 29.07 28.7521 29.1327 26.2469L28.133 26.2219C28.0706 28.7166 27.9305 30.5446 27.7188 31.7242L28.7031 31.9008ZM28.3666 25.8111C26.4375 27.0246 24.8395 27.9269 23.5686 28.524L23.9939 29.4291C25.3167 28.8075 26.9532 27.8816 28.899 26.6576L28.3666 25.8111ZM23.5934 28.5132C22.9999 28.7538 22.5222 29.0031 22.1978 29.2703L22.8335 30.0422C23.0403 29.8719 23.4064 29.6681 23.9691 29.4399L23.5934 28.5132ZM22.2215 29.2519C22.1146 29.3296 22.0434 29.3438 22 29.3438V30.3438C22.3004 30.3438 22.5729 30.2329 22.8097 30.0606L22.2215 29.2519ZM22 29.3438C22.0008 29.3438 21.9953 29.3438 21.9823 29.3415C21.9694 29.3391 21.9508 29.3347 21.9261 29.3268C21.8759 29.3106 21.809 29.2826 21.7238 29.2376C21.5522 29.1469 21.3336 29.0019 21.0648 28.7928L20.4508 29.5822C20.7446 29.8106 21.0142 29.9937 21.2567 30.1218C21.4885 30.2442 21.7453 30.3438 22 30.3438V29.3438ZM21.0639 28.7921C20.5947 28.4289 20.5312 28.2162 20.5312 28.1562H19.5312C19.5312 28.7213 19.9522 29.1961 20.4517 29.5829L21.0639 28.7921ZM20.5312 28.1562C20.5312 28.0889 20.5517 27.9238 20.6143 27.6264L19.6357 27.4204C19.5733 27.7169 19.5312 27.9736 19.5312 28.1562H20.5312ZM20.607 27.6564C20.7481 27.145 20.8125 26.5262 20.8125 25.8125H19.8125C19.8125 26.4738 19.7519 26.9956 19.643 27.3905L20.607 27.6564ZM20.8125 25.8125C20.8125 22.9967 20.6882 20.9228 20.4278 19.6207L19.4472 19.8168C19.6868 21.0147 19.8125 23.0033 19.8125 25.8125H20.8125ZM20.4323 19.6468C20.2967 18.7143 19.9586 17.8078 19.428 16.9291L18.572 17.4459C19.0414 18.2235 19.3283 19.0045 19.4427 19.7907L20.4323 19.6468ZM19.5 17.1875C19.5 17.1396 19.5116 17.1955 19.4473 17.2598C19.383 17.3241 19.3271 17.3125 19.375 17.3125V16.3125C19.1729 16.3125 18.9295 16.3634 18.7402 16.5527C18.5509 16.742 18.5 16.9854 18.5 17.1875H19.5Z" fill="#333333"/>
</svg>

<svg xmlns="http://www.w3.org/2000/svg" width="50" height="50" fill="none"><path fill="#333" d="M19.375 16.813c.422 0 1.04.21 1.852.632.703.328 1.054.657 1.054.985 0 .125-.062.312-.187.562-.063.313-.094.68-.094 1.102v6.656c0 .688.156 1.031.469 1.031.218 0 .648-.133 1.289-.398 1.86-.766 3.492-1.54 4.898-2.32v-1.758c0-4.188-.172-6.82-.515-7.899l-.235-.75c0-.11.125-.164.375-.164.39 0 .875.18 1.453.54.594.421.891.796.891 1.124 0 .094-.086.297-.258.61-.078.265-.117.71-.117 1.336v6.68c0 5.25-.063 8.312-.188 9.187a1.952 1.952 0 0 1-.304.75c-.11.187-.258.281-.445.281-.266 0-.532-.21-.797-.633-.344-.562-.516-.976-.516-1.242 0-.156.07-.594.21-1.313.22-1.218.36-3.078.423-5.578-1.938 1.22-3.555 2.133-4.852 2.743-.578.234-1 .46-1.265.68a.873.873 0 0 1-.516.187c-.266 0-.68-.219-1.242-.657-.485-.375-.727-.718-.727-1.03 0-.126.032-.337.094-.634.125-.453.188-1.023.188-1.71 0-2.813-.125-4.844-.375-6.094-.125-.86-.438-1.703-.938-2.532 0-.25.125-.375.375-.375Z"/><path fill="#333" d="m21.227 17.445-.23.444.009.005.01.004.21-.453Zm.867 1.547-.448-.223-.03.06-.012.065.49.098Zm1.664 8.39-.19-.462h-.002l.192.463Zm4.898-2.32.243.438.257-.143v-.294h-.5Zm-.515-9.656-.478.15.001.002.477-.152Zm-.235-.75h-.5v.077l.023.072.477-.149Zm1.828.375.29-.407-.013-.01-.013-.007-.264.424Zm.633 1.735-.438-.241-.026.047-.015.053.48.14Zm-.305 17.203.493.087.001-.008.002-.009-.495-.07Zm-.304.75-.416-.278-.008.013-.008.013.432.252Zm-1.242-.352-.427.26.004.007.423-.267Zm-.305-2.554.49.096.002-.008-.492-.088Zm.422-5.579.5.013.023-.932-.79.496.267.423Zm-4.852 2.743.188.463.013-.005.012-.006-.213-.452Zm-1.265.68.294.404.012-.01.012-.009-.318-.386Zm-1.758-.47.307-.394h-.001l-.306.395Zm-.633-1.664-.482-.133-.004.015-.003.015.489.103Zm-.188-7.804-.494.072.002.013.002.013.49-.098ZM19 17.187h-.5v.14l.072.119.428-.259Zm.375.125c.291 0 .815.159 1.621.577l.461-.887c-.819-.426-1.53-.69-2.082-.69v1Zm1.64.586c.33.154.54.292.661.405.122.114.105.155.105.127h1c0-.357-.193-.644-.422-.858-.23-.215-.547-.405-.921-.58l-.423.906Zm.766.532c0-.013.002.007-.021.076-.021.064-.058.15-.114.263l.895.447c.127-.254.24-.534.24-.786h-1Zm-.177.464c-.071.353-.104.755-.104 1.2h1c0-.4.03-.732.084-1.004l-.98-.196Zm-.104 1.2v6.656h1v-6.656h-1Zm0 6.656c0 .366.04.71.162.98.064.142.16.283.306.39.15.11.325.161.5.161v-1c.02 0 .058.008.091.033.028.02.027.033.013.003-.033-.074-.072-.245-.072-.567h-1Zm.969 1.531c.188 0 .41-.053.634-.122.235-.072.518-.178.846-.314l-.383-.924c-.312.13-.564.223-.759.283a1.473 1.473 0 0 1-.338.077v1Zm1.48-.436c1.872-.771 3.523-1.553 4.95-2.345l-.486-.875c-1.385.77-3 1.535-4.846 2.296l.381.924Zm5.207-2.782v-1.758h-1v1.758h1Zm0-1.758c0-2.1-.043-3.817-.13-5.148-.086-1.318-.217-2.3-.409-2.903l-.953.304c.152.476.279 1.349.364 2.664.085 1.301.128 2.994.128 5.083h1Zm-.538-8.048-.234-.75-.955.298.234.75.955-.298Zm-.212-.6c0 .074-.024.158-.079.23a.332.332 0 0 1-.127.104c-.022.01-.03.009-.01.006a.678.678 0 0 1 .091-.005v-1c-.146 0-.323.014-.481.083a.671.671 0 0 0-.268.207.614.614 0 0 0-.126.374h1Zm-.125.335c.251 0 .639.122 1.19.464l.527-.85c-.606-.376-1.187-.614-1.717-.614v1Zm1.164.447c.276.196.457.364.565.5.11.139.115.207.115.217h1c0-.318-.143-.6-.33-.837a3.75 3.75 0 0 0-.771-.695l-.58.815Zm.68.717c0-.044.009-.065.004-.048a.747.747 0 0 1-.029.076c-.034.08-.089.191-.17.34l.875.483c.09-.164.164-.31.216-.433.043-.102.104-.26.104-.418h-1Zm-.238.469c-.1.34-.137.848-.137 1.477h1c0-.622.04-1.004.097-1.195l-.96-.282Zm-.137 1.477v6.68h1v-6.68h-1Zm0 6.68c0 2.623-.016 4.697-.047 6.223-.031 1.54-.078 2.492-.136 2.893l.99.141c.068-.473.115-1.49.146-3.013.031-1.536.047-3.618.047-6.245h-1Zm-.18 9.1c-.034.194-.109.38-.228.56l.832.554c.193-.29.322-.604.38-.94l-.984-.174Zm-.244.585c-.024.04-.036.045-.029.04a.058.058 0 0 1 .014-.006c.005-.002.006-.001.002-.001v1c.396 0 .695-.217.877-.53l-.864-.503Zm-.014.033h-.002a.301.301 0 0 1-.085-.05 1.405 1.405 0 0 1-.286-.35l-.846.534c.28.444.675.866 1.22.866v-1Zm-.37-.394a5.004 5.004 0 0 1-.351-.663c-.076-.182-.091-.281-.091-.318h-1c0 .229.07.47.167.702.1.239.242.507.422.8l.853-.52Zm-.442-.981c0-.032.01-.142.046-.366a27 27 0 0 1 .156-.85l-.982-.192c-.07.361-.124.657-.16.883-.035.214-.06.4-.06.525h1Zm.203-1.224c.226-1.258.367-3.149.43-5.654l-1-.025c-.062 2.495-.203 4.323-.414 5.502l.984.177Zm-.336-6.09c-1.93 1.214-3.527 2.116-4.798 2.713l.425.905c1.323-.621 2.96-1.547 4.905-2.771l-.532-.847Zm-4.774 2.702c-.593.24-1.07.49-1.395.757l.636.772c.206-.17.572-.374 1.135-.602l-.376-.927Zm-1.372.739c-.106.078-.178.092-.221.092v1c.3 0 .573-.111.81-.283l-.588-.81Zm-.221.092-.018-.003a.469.469 0 0 1-.056-.014 1.305 1.305 0 0 1-.202-.09 4.731 4.731 0 0 1-.66-.444l-.613.79c.294.228.563.41.806.539.231.122.488.222.743.222v-1Zm-.936-.552c-.47-.363-.533-.576-.533-.636h-1c0 .565.421 1.04.92 1.427l.613-.79Zm-.533-.636c0-.067.02-.232.083-.53l-.978-.206a3.971 3.971 0 0 0-.105.736h1Zm.076-.5c.141-.511.206-1.13.206-1.843h-1c0 .66-.061 1.183-.17 1.578l.964.265Zm.206-1.843c0-2.816-.125-4.89-.385-6.192l-.98.196c.239 1.198.364 3.186.364 5.995h1Zm-.38-6.166c-.136-.933-.474-1.84-1.005-2.718l-.856.517c.47.777.756 1.558.87 2.345l.99-.144Zm-.933-2.46c0-.047.012.008-.053.073-.064.064-.12.052-.072.052v-1a.877.877 0 0 0-.635.24.877.877 0 0 0-.24.636h1Z"/></svg>
